X: 2
T: Devanny's Goat
R: reel
M: 4/4
L: 1/8
K: Cmaj
ED|:CEGA GEGA|cded cAGE|C ~E3 AEGE|CDEC (3DEF ED|CEGA GEGA|cded cAGe|(3ded cA G ~E3|GEDE C3:|B|cega gece|gcec dcAc|GAcd e~c3|dcec dcAc|GAcd e~c3|dcec dcAc|G2 cA GECE|GEDE C3:|


Tune 2881	Setting 16084

